X: 30915
T: Over The Hills And Far Away
R: jig
M: 6/8
K: Eminor
K: Emin
EF|:"Em"GEE AEE|BEE cBA|"Em"BEE EDE|"D"FAG FEF|
"Em"GEE AEE|BEE cAB|"Am"cAA ABc|1 "D"dcB AGF:|2 "D"dcB AGA||
|:"Em"Bee e2f|edB "D"AGA|"Em"Bee e2f|"D"edB d3|"Em"Bee e2f|
gfe "D"fed|1 "C"edB "D"AGA|"Em"BEE E3:|2 "C"edB dBA|BAG "D"AGF||

